icons/1_Primary/Hostwinds.svg

<svg xmlns="http://www.w3.org/2000/svg" width="1024" height="1024" fill="none">
   <g clip-path="url(#a)">
      <path fill="#9ABEFF" d="M512 1024c282.77 0 512-229.23 512-512S794.77 0 512 0 0 229.23 0 512s229.23 512 512 512Z"/>
      <path fill="#fff" d="M450.2 435c7.54-40.21 19.6-82.44 19.6-82.44 18.1-64.85 69.87-78.42 69.87-78.42 50.27-17.09 79.93 17.09 79.93 17.09v.5a20.807 20.807 0 0 1 3.52 6c1.51 1.51 2 4 2 6.53a17.609 17.609 0 0 1-9.55 15.58h-.5c-39.71 18.1-67.86 49.77-67.86 49.77-70.38 77.92-104.56 216.66-104.56 216.66S408.47 730 317.49 705.42c0 0-57.31-14.08-72.39-97.52-3.52-22.12 2.51-27.14 2.51-27.14 9.55-7.54 20.61 6 20.61 6 28.15 34.18 64.85 31.17 64.85 31.17 4.52 0 55.3-.5 96-106.57.01.52 13.59-32.65 21.13-76.36Zm257.37 97c-73.39-12.06-173.93 192.53-173.93 192.53-6.53 12.06-13.57 9.55-13.57 9.55-8-1.51-4.52-13.57-4.52-13.57s54.79-232.74 167.9-251.84c0 0 64.34-10.05 69.37 61.33 0 0 0 21.62-20.61 12.57-.01.48-13.08-8.57-24.64-10.57Zm60.82-137.23c-51.78-69.37-126.68-44.24-126.68-44.24C489.91 398.28 445.17 729 445.17 729s-2.51 17.09 8.55 17.59c0 0 10.05 1.51 16.59-15.58 0 0 63.34-294.07 210.62-303.62 0 0 37.7-3 72.39 13.07 0 0 11.06 6.53 20.11-2 0 0 12.06-11.06 3.52-28.65 0 0-3-5.53-8-14.58l-.56-.46Z"/>
   </g>
   <defs>
      <clipPath id="a">
         <path fill="#fff" d="M0 0h1024v1024H0z"/>
      </clipPath>
   </defs>
</svg>

<svg width="1024" height="1024" viewBox="0 0 1024 1024" fill="none" xmlns="http://www.w3.org/2000/svg">
<g clip-path="url(#clip0_2_2436)">
<path d="M512 1024C794.77 1024 1024 794.77 1024 512C1024 229.23 794.77 0 512 0C229.23 0 0 229.23 0 512C0 794.77 229.23 1024 512 1024Z" fill="#9ABEFF"/>
<path d="M450.2 435C457.74 394.79 469.8 352.56 469.8 352.56C487.9 287.71 539.67 274.14 539.67 274.14C589.94 257.05 619.6 291.23 619.6 291.23V291.73C621.102 293.519 622.292 295.547 623.12 297.73C624.63 299.24 625.12 301.73 625.12 304.26C625.106 307.482 624.208 310.639 622.524 313.386C620.84 316.133 618.435 318.365 615.57 319.84H615.07C575.36 337.94 547.21 369.61 547.21 369.61C476.83 447.53 442.65 586.27 442.65 586.27C442.65 586.27 408.47 730 317.49 705.42C317.49 705.42 260.18 691.34 245.1 607.9C241.58 585.78 247.61 580.76 247.61 580.76C257.16 573.22 268.22 586.76 268.22 586.76C296.37 620.94 333.07 617.93 333.07 617.93C337.59 617.93 388.37 617.43 429.07 511.36C429.08 511.88 442.66 478.71 450.2 435ZM707.57 532C634.18 519.94 533.64 724.53 533.64 724.53C527.11 736.59 520.07 734.08 520.07 734.08C512.07 732.57 515.55 720.51 515.55 720.51C515.55 720.51 570.34 487.77 683.45 468.67C683.45 468.67 747.79 458.62 752.82 530C752.82 530 752.82 551.62 732.21 542.57C732.2 543.05 719.13 534 707.57 532ZM768.39 394.77C716.61 325.4 641.71 350.53 641.71 350.53C489.91 398.28 445.17 729 445.17 729C445.17 729 442.66 746.09 453.72 746.59C453.72 746.59 463.77 748.1 470.31 731.01C470.31 731.01 533.65 436.94 680.93 427.39C680.93 427.39 718.63 424.39 753.32 440.46C753.32 440.46 764.38 446.99 773.43 438.46C773.43 438.46 785.49 427.4 776.95 409.81C776.95 409.81 773.95 404.28 768.95 395.23L768.39 394.77Z" fill="white"/>
</g>
<defs>
<clipPath id="clip0_2_2436">
<rect width="1024" height="1024" fill="white"/>
</clipPath>
</defs>
</svg>
